vibrant.svg

<svg width="144" height="38" viewBox="0 0 144 38" fill="none" xmlns="http://www.w3.org/2000/svg">
<g filter="url(#filter0_d_4907_3317)">
<path d="M15.3577 33.4034H14.8104L7.22637 16.4399C6.40542 14.6461 5.4281 13.7102 4.3335 13.5151V12.9692H15.475V13.5151C13.4813 13.7882 12.8557 14.7631 13.5986 16.4399L17.6251 25.8381L21.6517 16.4399C22.3944 14.724 21.808 13.7491 19.9316 13.5151V12.9692H25.5219V13.5151C24.5446 13.7491 23.6454 14.6851 22.8245 16.4399L15.3577 33.4034Z" fill="white"/>
</g>
<g filter="url(#filter1_d_4907_3317)">
<path d="M30.6432 10.9413C28.5321 10.9413 26.9684 9.42051 26.9684 7.43169C26.9684 5.48186 28.5321 4 30.6432 4C32.7541 4 34.3179 5.48186 34.3179 7.43169C34.3179 9.42051 32.7541 10.9413 30.6432 10.9413ZM33.536 12.9692V30.3616C33.536 31.8825 34.0442 32.5064 35.7644 32.8574V33.4033H25.522V32.8574C27.203 32.5064 27.7503 31.8825 27.7503 30.3616V18.2337C27.7503 16.3228 26.8902 15.8159 25.522 15.8939V15.3479L32.9887 12.9692H33.536Z" fill="white"/>
</g>
<g filter="url(#filter2_d_4907_3317)">
<path d="M49.2512 12.3843C54.7633 12.3843 57.6562 16.9469 57.6562 22.2894C57.6562 29.0358 53.3951 33.4034 47.5702 33.4034C45.6156 33.4034 43.7 32.7014 42.3709 31.5316L38.5397 33.4034H37.9924V9.84955C37.9924 7.97772 37.1324 7.47076 35.7642 7.50976V6.96381L43.27 4.62402H43.8173V16.5959C44.521 14.2562 46.5147 12.3843 49.2512 12.3843ZM47.2184 32.3115C49.8376 32.3115 51.5968 28.6849 51.5968 24.0443C51.5968 19.4427 50.0722 15.465 46.6711 15.465C45.381 15.465 44.2473 16.3619 43.8173 17.7268V26.969C43.8173 29.8157 45.0682 32.3115 47.2184 32.3115Z" fill="white"/>
</g>
<g filter="url(#filter3_d_4907_3317)">
<path d="M71.6515 12.9692C73.6062 12.9692 75.2481 13.7882 75.2481 15.738C75.2481 17.4148 74.2316 18.3897 72.9807 18.3897C71.2606 18.3897 71.0651 17.0638 69.6187 17.0638C67.5859 17.0638 65.9439 19.5207 65.9049 22.7963V30.4396C65.9049 31.9995 66.4913 32.4674 69.2277 32.8575V33.4034H57.6562V32.8575C59.4936 32.4674 60.1191 31.9995 60.1191 30.4396V18.2338C60.1191 16.3229 59.259 15.816 57.8908 15.894V15.348L65.3575 12.9692H65.9049V19.2867C66.6867 15.0751 69.3059 12.9692 71.6515 12.9692Z" fill="white"/>
</g>
<g filter="url(#filter4_d_4907_3317)">
<path d="M95.1492 29.3867L95.6576 29.5817C94.3288 33.0134 92.0612 33.4034 90.8884 33.4034C89.1682 33.4034 86.6666 32.1555 86.5098 29.2307C85.5328 32.0385 83.2651 33.4034 80.7238 33.4034C77.5578 33.4034 75.2511 31.2975 75.2511 28.3728C75.2511 24.3172 77.8315 22.0164 84.1252 21.3925L86.5098 21.1585V18.9747C86.5098 15.699 85.337 13.4762 83.1084 13.4762C80.5678 13.4762 79.6687 15.816 80.0594 17.4539C80.5678 19.4037 79.6297 20.3786 78.3002 20.6515C76.6194 21.0025 75.1729 20.1056 75.2511 18.1948C75.3293 15.348 78.3392 12.3843 84.0473 12.3843C89.3249 12.3843 92.2959 15.1921 92.2959 19.5206V29.0358C92.2959 30.1667 92.7646 30.8296 93.4687 30.8296C94.0551 30.8296 94.6018 30.4396 95.1492 29.3867ZM83.8515 30.0886C84.9853 30.0886 85.9624 29.2307 86.5098 27.9438V22.2894L84.5947 22.5623C82.2491 22.9133 80.9975 24.3952 80.9975 26.774C80.9975 28.7238 82.1313 30.0886 83.8515 30.0886Z" fill="white"/>
</g>
<g filter="url(#filter5_d_4907_3317)">
<path d="M116.143 19.7546V30.3617C116.143 31.8825 116.69 32.5065 118.371 32.8575V33.4034H108.129V32.8575C109.849 32.5065 110.357 31.8825 110.357 30.3617V20.1056C110.357 17.9218 109.302 16.6349 107.503 16.6349C106.096 16.6349 104.923 17.2589 103.672 18.5067V30.3617C103.672 31.8825 104.18 32.5065 105.9 32.8575V33.4034H95.6577V32.8575C97.3389 32.5065 97.8863 31.8825 97.8863 30.3617V18.2338C97.8863 16.3229 97.0262 15.816 95.6577 15.894V15.348L103.125 12.9692H103.672V17.2978C105.549 14.8801 107.659 13.0082 110.279 13.0082C114.267 13.0082 116.143 15.699 116.143 19.7546Z" fill="white"/>
</g>
<g filter="url(#filter6_d_4907_3317)">
<path d="M132.445 29.5429L132.758 29.8158C132.055 31.0247 130.178 33.4035 127.48 33.4035C123.649 33.4035 121.421 30.9468 121.421 27.1641V14.0613H118.372V13.5153C122.203 12.1894 125.213 9.96665 126.659 7.27588H127.207V12.9694H132.445V14.0613H127.207V26.9691C127.207 29.0359 128.145 30.8298 130.1 30.6737C131.233 30.5958 131.82 30.0498 132.445 29.5429Z" fill="white"/>
</g>
<g filter="url(#filter7_d_4907_3317)">
<path d="M135.925 33.4034C134.165 33.4034 132.758 32.0385 132.758 30.2447C132.758 28.5288 134.165 27.125 135.925 27.125C137.801 27.125 139.091 28.5288 139.091 30.2447C139.091 32.0385 137.684 33.4034 135.925 33.4034Z" fill="white"/>
</g>
<defs>
<filter id="filter0_d_4907_3317" x="0.333496" y="8.96924" width="29.1885" height="28.4341" filterUnits="userSpaceOnUse" color-interpolation-filters="sRGB">
<feFlood flood-opacity="0" result="BackgroundImageFix"/>
<feColorMatrix in="SourceAlpha" type="matrix" values="0 0 0 0 0 0 0 0 0 0 0 0 0 0 0 0 0 0 127 0" result="hardAlpha"/>
<feOffset/>
<feGaussianBlur stdDeviation="2"/>
<feComposite in2="hardAlpha" operator="out"/>
<feColorMatrix type="matrix" values="0 0 0 0 1 0 0 0 0 0.899271 0 0 0 0 0.606679 0 0 0 0.18 0"/>
<feBlend mode="normal" in2="BackgroundImageFix" result="effect1_dropShadow_4907_3317"/>
<feBlend mode="normal" in="SourceGraphic" in2="effect1_dropShadow_4907_3317" result="shape"/>
</filter>
<filter id="filter1_d_4907_3317" x="21.522" y="0" width="18.2422" height="37.4033" filterUnits="userSpaceOnUse" color-interpolation-filters="sRGB">
<feFlood flood-opacity="0" result="BackgroundImageFix"/>
<feColorMatrix in="SourceAlpha" type="matrix" values="0 0 0 0 0 0 0 0 0 0 0 0 0 0 0 0 0 0 127 0" result="hardAlpha"/>
<feOffset/>
<feGaussianBlur stdDeviation="2"/>
<feComposite in2="hardAlpha" operator="out"/>
<feColorMatrix type="matrix" values="0 0 0 0 1 0 0 0 0 0.899271 0 0 0 0 0.606679 0 0 0 0.18 0"/>
<feBlend mode="normal" in2="BackgroundImageFix" result="effect1_dropShadow_4907_3317"/>
<feBlend mode="normal" in="SourceGraphic" in2="effect1_dropShadow_4907_3317" result="shape"/>
</filter>
<filter id="filter2_d_4907_3317" x="31.7642" y="0.624023" width="29.8921" height="36.7793" filterUnits="userSpaceOnUse" color-interpolation-filters="sRGB">
<feFlood flood-opacity="0" result="BackgroundImageFix"/>
<feColorMatrix in="SourceAlpha" type="matrix" values="0 0 0 0 0 0 0 0 0 0 0 0 0 0 0 0 0 0 127 0" result="hardAlpha"/>
<feOffset/>
<feGaussianBlur stdDeviation="2"/>
<feComposite in2="hardAlpha" operator="out"/>
<feColorMatrix type="matrix" values="0 0 0 0 1 0 0 0 0 0.899271 0 0 0 0 0.606679 0 0 0 0.18 0"/>
<feBlend mode="normal" in2="BackgroundImageFix" result="effect1_dropShadow_4907_3317"/>
<feBlend mode="normal" in="SourceGraphic" in2="effect1_dropShadow_4907_3317" result="shape"/>
</filter>
<filter id="filter3_d_4907_3317" x="53.6562" y="8.96924" width="25.5918" height="28.4341" filterUnits="userSpaceOnUse" color-interpolation-filters="sRGB">
<feFlood flood-opacity="0" result="BackgroundImageFix"/>
<feColorMatrix in="SourceAlpha" type="matrix" values="0 0 0 0 0 0 0 0 0 0 0 0 0 0 0 0 0 0 127 0" result="hardAlpha"/>
<feOffset/>
<feGaussianBlur stdDeviation="2"/>
<feComposite in2="hardAlpha" operator="out"/>
<feColorMatrix type="matrix" values="0 0 0 0 1 0 0 0 0 0.899271 0 0 0 0 0.606679 0 0 0 0.18 0"/>
<feBlend mode="normal" in2="BackgroundImageFix" result="effect1_dropShadow_4907_3317"/>
<feBlend mode="normal" in="SourceGraphic" in2="effect1_dropShadow_4907_3317" result="shape"/>
</filter>
<filter id="filter4_d_4907_3317" x="71.248" y="8.38428" width="28.4097" height="29.019" filterUnits="userSpaceOnUse" color-interpolation-filters="sRGB">
<feFlood flood-opacity="0" result="BackgroundImageFix"/>
<feColorMatrix in="SourceAlpha" type="matrix" values="0 0 0 0 0 0 0 0 0 0 0 0 0 0 0 0 0 0 127 0" result="hardAlpha"/>
<feOffset/>
<feGaussianBlur stdDeviation="2"/>
<feComposite in2="hardAlpha" operator="out"/>
<feColorMatrix type="matrix" values="0 0 0 0 1 0 0 0 0 0.899271 0 0 0 0 0.606679 0 0 0 0.18 0"/>
<feBlend mode="normal" in2="BackgroundImageFix" result="effect1_dropShadow_4907_3317"/>
<feBlend mode="normal" in="SourceGraphic" in2="effect1_dropShadow_4907_3317" result="shape"/>
</filter>
<filter id="filter5_d_4907_3317" x="91.6577" y="8.96924" width="30.7139" height="28.4341" filterUnits="userSpaceOnUse" color-interpolation-filters="sRGB">
<feFlood flood-opacity="0" result="BackgroundImageFix"/>
<feColorMatrix in="SourceAlpha" type="matrix" values="0 0 0 0 0 0 0 0 0 0 0 0 0 0 0 0 0 0 127 0" result="hardAlpha"/>
<feOffset/>
<feGaussianBlur stdDeviation="2"/>
<feComposite in2="hardAlpha" operator="out"/>
<feColorMatrix type="matrix" values="0 0 0 0 1 0 0 0 0 0.899271 0 0 0 0 0.606679 0 0 0 0.18 0"/>
<feBlend mode="normal" in2="BackgroundImageFix" result="effect1_dropShadow_4907_3317"/>
<feBlend mode="normal" in="SourceGraphic" in2="effect1_dropShadow_4907_3317" result="shape"/>
</filter>
<filter id="filter6_d_4907_3317" x="114.372" y="3.27588" width="22.3862" height="34.1274" filterUnits="userSpaceOnUse" color-interpolation-filters="sRGB">
<feFlood flood-opacity="0" result="BackgroundImageFix"/>
<feColorMatrix in="SourceAlpha" type="matrix" values="0 0 0 0 0 0 0 0 0 0 0 0 0 0 0 0 0 0 127 0" result="hardAlpha"/>
<feOffset/>
<feGaussianBlur stdDeviation="2"/>
<feComposite in2="hardAlpha" operator="out"/>
<feColorMatrix type="matrix" values="0 0 0 0 1 0 0 0 0 0.899271 0 0 0 0 0.606679 0 0 0 0.18 0"/>
<feBlend mode="normal" in2="BackgroundImageFix" result="effect1_dropShadow_4907_3317"/>
<feBlend mode="normal" in="SourceGraphic" in2="effect1_dropShadow_4907_3317" result="shape"/>
</filter>
<filter id="filter7_d_4907_3317" x="128.758" y="23.125" width="14.3325" height="14.2783" filterUnits="userSpaceOnUse" color-interpolation-filters="sRGB">
<feFlood flood-opacity="0" result="BackgroundImageFix"/>
<feColorMatrix in="SourceAlpha" type="matrix" values="0 0 0 0 0 0 0 0 0 0 0 0 0 0 0 0 0 0 127 0" result="hardAlpha"/>
<feOffset/>
<feGaussianBlur stdDeviation="2"/>
<feComposite in2="hardAlpha" operator="out"/>
<feColorMatrix type="matrix" values="0 0 0 0 1 0 0 0 0 0.899271 0 0 0 0 0.606679 0 0 0 0.18 0"/>
<feBlend mode="normal" in2="BackgroundImageFix" result="effect1_dropShadow_4907_3317"/>
<feBlend mode="normal" in="SourceGraphic" in2="effect1_dropShadow_4907_3317" result="shape"/>
</filter>
</defs>
</svg>

<svg xmlns="http://www.w3.org/2000/svg" width="144" height="38" fill="none"><g filter="url(#a)"><path fill="#fff" d="M15.358 33.403h-.548L7.226 16.44c-.82-1.794-1.798-2.73-2.892-2.925v-.546h11.141v.546q-2.992.41-1.876 2.925l4.026 9.398 4.027-9.398c.742-1.716.156-2.69-1.72-2.925v-.546h5.59v.546c-.977.234-1.877 1.17-2.697 2.925z"/></g><g filter="url(#b)"><path fill="#fff" d="M30.643 10.941c-2.11 0-3.675-1.52-3.675-3.51 0-1.95 1.564-3.431 3.675-3.431s3.675 1.482 3.675 3.432c0 1.989-1.564 3.51-3.675 3.51m2.893 2.028v17.393c0 1.52.508 2.144 2.228 2.495v.546H25.522v-.546c1.681-.35 2.228-.974 2.228-2.495V18.234c0-1.911-.86-2.418-2.228-2.34v-.546l7.467-2.379z"/></g><g filter="url(#c)"><path fill="#fff" d="M49.251 12.384c5.512 0 8.405 4.563 8.405 9.905 0 6.747-4.26 11.114-10.086 11.114-1.954 0-3.87-.702-5.2-1.871l-3.83 1.871h-.548V9.85c0-1.872-.86-2.38-2.228-2.34v-.546l7.506-2.34h.547v11.972c.704-2.34 2.698-4.212 5.434-4.212m-2.033 19.928c2.62 0 4.379-3.627 4.379-8.268 0-4.601-1.525-8.579-4.926-8.579-1.29 0-2.424.897-2.854 2.262v9.242c0 2.847 1.251 5.343 3.401 5.343"/></g><g filter="url(#d)"><path fill="#fff" d="M71.652 12.97c1.954 0 3.596.818 3.596 2.768 0 1.677-1.016 2.652-2.267 2.652-1.72 0-1.916-1.326-3.362-1.326-2.033 0-3.675 2.457-3.714 5.732v7.644c0 1.56.586 2.027 3.323 2.418v.545H57.656v-.545c1.838-.39 2.463-.858 2.463-2.418V18.234c0-1.911-.86-2.418-2.228-2.34v-.546l7.467-2.379h.547v6.318c.782-4.212 3.4-6.318 5.746-6.318"/></g><g filter="url(#e)"><path fill="#fff" d="m95.15 29.387.508.195c-1.33 3.431-3.597 3.821-4.77 3.821-1.72 0-4.221-1.247-4.378-4.172-.977 2.807-3.245 4.172-5.786 4.172-3.166 0-5.473-2.105-5.473-5.03 0-4.056 2.58-6.357 8.874-6.98l2.385-.235v-2.183c0-3.276-1.173-5.499-3.402-5.499-2.54 0-3.44 2.34-3.049 3.978.509 1.95-.43 2.925-1.759 3.197-1.68.352-3.127-.545-3.049-2.456.078-2.847 3.088-5.81 8.796-5.81 5.278 0 8.249 2.807 8.249 7.136v9.515c0 1.13.469 1.794 1.173 1.794.586 0 1.133-.39 1.68-1.443m-11.299.702c1.134 0 2.111-.858 2.659-2.145v-5.655l-1.915.273c-2.346.351-3.597 1.833-3.597 4.212 0 1.95 1.133 3.315 2.853 3.315"/></g><g filter="url(#f)"><path fill="#fff" d="M116.143 19.755v10.607c0 1.52.547 2.145 2.228 2.496v.545h-10.242v-.545c1.72-.351 2.228-.975 2.228-2.496V20.106c0-2.184-1.055-3.471-2.854-3.471-1.407 0-2.58.624-3.831 1.872v11.855c0 1.52.508 2.145 2.228 2.496v.545H95.658v-.545c1.68-.351 2.228-.975 2.228-2.496V18.234c0-1.911-.86-2.418-2.228-2.34v-.546l7.467-2.379h.547v4.329c1.877-2.418 3.987-4.29 6.607-4.29 3.988 0 5.864 2.691 5.864 6.747"/></g><g filter="url(#g)"><path fill="#fff" d="m132.445 29.543.313.273c-.703 1.209-2.58 3.588-5.278 3.588-3.831 0-6.059-2.457-6.059-6.24V14.061h-3.049v-.546c3.831-1.326 6.841-3.548 8.287-6.24h.548v5.694h5.238v1.092h-5.238V26.97c0 2.067.938 3.86 2.893 3.705 1.133-.078 1.72-.624 2.345-1.131"/></g><g filter="url(#h)"><path fill="#fff" d="M135.925 33.403c-1.76 0-3.167-1.364-3.167-3.158 0-1.716 1.407-3.12 3.167-3.12 1.876 0 3.166 1.404 3.166 3.12 0 1.793-1.407 3.158-3.166 3.158"/></g><defs><filter id="a" width="29.189" height="28.434" x=".333" y="8.969" color-interpolation-filters="sRGB" filterUnits="userSpaceOnUse"><feFlood flood-opacity="0" result="BackgroundImageFix"/><feColorMatrix in="SourceAlpha" result="hardAlpha" values="0 0 0 0 0 0 0 0 0 0 0 0 0 0 0 0 0 0 127 0"/><feOffset/><feGaussianBlur stdDeviation="2"/><feComposite in2="hardAlpha" operator="out"/><feColorMatrix values="0 0 0 0 1 0 0 0 0 0.899271 0 0 0 0 0.606679 0 0 0 0.18 0"/><feBlend in2="BackgroundImageFix" result="effect1_dropShadow_4907_3317"/><feBlend in="SourceGraphic" in2="effect1_dropShadow_4907_3317" result="shape"/></filter><filter id="b" width="18.242" height="37.403" x="21.522" y="0" color-interpolation-filters="sRGB" filterUnits="userSpaceOnUse"><feFlood flood-opacity="0" result="BackgroundImageFix"/><feColorMatrix in="SourceAlpha" result="hardAlpha" values="0 0 0 0 0 0 0 0 0 0 0 0 0 0 0 0 0 0 127 0"/><feOffset/><feGaussianBlur stdDeviation="2"/><feComposite in2="hardAlpha" operator="out"/><feColorMatrix values="0 0 0 0 1 0 0 0 0 0.899271 0 0 0 0 0.606679 0 0 0 0.18 0"/><feBlend in2="BackgroundImageFix" result="effect1_dropShadow_4907_3317"/><feBlend in="SourceGraphic" in2="effect1_dropShadow_4907_3317" result="shape"/></filter><filter id="c" width="29.892" height="36.779" x="31.764" y=".624" color-interpolation-filters="sRGB" filterUnits="userSpaceOnUse"><feFlood flood-opacity="0" result="BackgroundImageFix"/><feColorMatrix in="SourceAlpha" result="hardAlpha" values="0 0 0 0 0 0 0 0 0 0 0 0 0 0 0 0 0 0 127 0"/><feOffset/><feGaussianBlur stdDeviation="2"/><feComposite in2="hardAlpha" operator="out"/><feColorMatrix values="0 0 0 0 1 0 0 0 0 0.899271 0 0 0 0 0.606679 0 0 0 0.18 0"/><feBlend in2="BackgroundImageFix" result="effect1_dropShadow_4907_3317"/><feBlend in="SourceGraphic" in2="effect1_dropShadow_4907_3317" result="shape"/></filter><filter id="d" width="25.592" height="28.434" x="53.656" y="8.969" color-interpolation-filters="sRGB" filterUnits="userSpaceOnUse"><feFlood flood-opacity="0" result="BackgroundImageFix"/><feColorMatrix in="SourceAlpha" result="hardAlpha" values="0 0 0 0 0 0 0 0 0 0 0 0 0 0 0 0 0 0 127 0"/><feOffset/><feGaussianBlur stdDeviation="2"/><feComposite in2="hardAlpha" operator="out"/><feColorMatrix values="0 0 0 0 1 0 0 0 0 0.899271 0 0 0 0 0.606679 0 0 0 0.18 0"/><feBlend in2="BackgroundImageFix" result="effect1_dropShadow_4907_3317"/><feBlend in="SourceGraphic" in2="effect1_dropShadow_4907_3317" result="shape"/></filter><filter id="e" width="28.41" height="29.019" x="71.248" y="8.384" color-interpolation-filters="sRGB" filterUnits="userSpaceOnUse"><feFlood flood-opacity="0" result="BackgroundImageFix"/><feColorMatrix in="SourceAlpha" result="hardAlpha" values="0 0 0 0 0 0 0 0 0 0 0 0 0 0 0 0 0 0 127 0"/><feOffset/><feGaussianBlur stdDeviation="2"/><feComposite in2="hardAlpha" operator="out"/><feColorMatrix values="0 0 0 0 1 0 0 0 0 0.899271 0 0 0 0 0.606679 0 0 0 0.18 0"/><feBlend in2="BackgroundImageFix" result="effect1_dropShadow_4907_3317"/><feBlend in="SourceGraphic" in2="effect1_dropShadow_4907_3317" result="shape"/></filter><filter id="f" width="30.714" height="28.434" x="91.658" y="8.969" color-interpolation-filters="sRGB" filterUnits="userSpaceOnUse"><feFlood flood-opacity="0" result="BackgroundImageFix"/><feColorMatrix in="SourceAlpha" result="hardAlpha" values="0 0 0 0 0 0 0 0 0 0 0 0 0 0 0 0 0 0 127 0"/><feOffset/><feGaussianBlur stdDeviation="2"/><feComposite in2="hardAlpha" operator="out"/><feColorMatrix values="0 0 0 0 1 0 0 0 0 0.899271 0 0 0 0 0.606679 0 0 0 0.18 0"/><feBlend in2="BackgroundImageFix" result="effect1_dropShadow_4907_3317"/><feBlend in="SourceGraphic" in2="effect1_dropShadow_4907_3317" result="shape"/></filter><filter id="g" width="22.386" height="34.127" x="114.372" y="3.276" color-interpolation-filters="sRGB" filterUnits="userSpaceOnUse"><feFlood flood-opacity="0" result="BackgroundImageFix"/><feColorMatrix in="SourceAlpha" result="hardAlpha" values="0 0 0 0 0 0 0 0 0 0 0 0 0 0 0 0 0 0 127 0"/><feOffset/><feGaussianBlur stdDeviation="2"/><feComposite in2="hardAlpha" operator="out"/><feColorMatrix values="0 0 0 0 1 0 0 0 0 0.899271 0 0 0 0 0.606679 0 0 0 0.18 0"/><feBlend in2="BackgroundImageFix" result="effect1_dropShadow_4907_3317"/><feBlend in="SourceGraphic" in2="effect1_dropShadow_4907_3317" result="shape"/></filter><filter id="h" width="14.332" height="14.278" x="128.758" y="23.125" color-interpolation-filters="sRGB" filterUnits="userSpaceOnUse"><feFlood flood-opacity="0" result="BackgroundImageFix"/><feColorMatrix in="SourceAlpha" result="hardAlpha" values="0 0 0 0 0 0 0 0 0 0 0 0 0 0 0 0 0 0 127 0"/><feOffset/><feGaussianBlur stdDeviation="2"/><feComposite in2="hardAlpha" operator="out"/><feColorMatrix values="0 0 0 0 1 0 0 0 0 0.899271 0 0 0 0 0.606679 0 0 0 0.18 0"/><feBlend in2="BackgroundImageFix" result="effect1_dropShadow_4907_3317"/><feBlend in="SourceGraphic" in2="effect1_dropShadow_4907_3317" result="shape"/></filter></defs></svg>
